svg/rancher-k3s-dark.svg

<svg xmlns="http://www.w3.org/2000/svg" xml:space="preserve" viewBox="0 0 512 512"><path d="M457.8 46.3H54.2C24.3 46.4.1 70.6 0 100.5v310.9c.1 29.9 24.3 54.1 54.2 54.2h403.6c29.9-.1 54.1-24.3 54.2-54.2V100.5c-.1-29.9-24.3-54.1-54.2-54.2m-241.5 305-98.5 57.2c-12.6 7.3-28.7 3-36-9.5-7.3-12.6-3-28.7 9.5-36l98.5-57.2c12.6-7.3 28.7-3 36 9.5 7.4 12.5 3.1 28.6-9.5 36m38.8-87.3h-.1c-14.6-.1-26.3-11.9-26.2-26.5l.5-113.5c.1-14.5 11.8-26.2 26.4-26.2h.1c14.6.1 26.3 11.9 26.2 26.5l-.5 113.5c-.1 14.5-11.9 26.2-26.4 26.2m174.3 134.9c-7.3 12.6-23.4 16.9-36 9.7l-98.6-57c-12.6-7.3-16.9-23.4-9.6-36s23.4-16.9 36-9.6l98.6 57c12.5 7.2 16.9 23.3 9.6 35.9"/></svg>

<?xml version="1.0" encoding="utf-8"?>
<!-- Generator: Adobe Illustrator 28.2.0, SVG Export Plug-In . SVG Version: 6.00 Build 0)  -->
<svg version="1.1" id="Layer_1" xmlns="http://www.w3.org/2000/svg" xmlns:xlink="http://www.w3.org/1999/xlink" x="0px" y="0px"
	 viewBox="0 0 512 512" style="enable-background:new 0 0 512 512;" xml:space="preserve">
<path d="M457.8,46.3H54.2C24.3,46.4,0.1,70.6,0,100.5v310.9c0.1,29.9,24.3,54.1,54.2,54.2h403.6c29.9-0.1,54.1-24.3,54.2-54.2V100.5
	C511.9,70.6,487.7,46.4,457.8,46.3z M216.3,351.3l-98.5,57.2c-12.6,7.3-28.7,3-36-9.5c-7.3-12.6-3-28.7,9.5-36l0,0l98.5-57.2
	c12.6-7.3,28.7-3,36,9.5C233.2,327.8,228.9,343.9,216.3,351.3L216.3,351.3z M255.1,264H255c-14.6-0.1-26.3-11.9-26.2-26.5l0,0
	l0.5-113.5c0.1-14.5,11.8-26.2,26.4-26.2h0.1c14.6,0.1,26.3,11.9,26.2,26.5l-0.5,113.5C281.4,252.3,269.6,264,255.1,264z
	 M429.4,398.9c-7.3,12.6-23.4,16.9-36,9.7l0,0l-98.6-57c-12.6-7.3-16.9-23.4-9.6-36s23.4-16.9,36-9.6l0,0l98.6,57
	C432.3,370.2,436.7,386.3,429.4,398.9L429.4,398.9L429.4,398.9z"/>
</svg>
